static/images/icons/sanity.svg

<svg height="64" viewBox="0 0 64 64" width="64" xmlns="http://www.w3.org/2000/svg"><g fill="none" fill-rule="nonzero"><path d="m45.6 42.1333333c4.7111111 3.0222223 6.8444444 7.2888889 6.8444444 13.4222223-4 5.0666666-10.8444444 7.8222222-18.9333333 7.8222222-13.6 0-23.2888889-6.7555556-25.33333332-18.4h13.06666662c1.6888889 5.3333333 6.1333334 7.8222222 12.1777778 7.8222222 7.2.0888889 12.0888889-3.8222222 12.1777778-10.6666667zm-13.9555556-41.77777774c13.9555556 0 21.9555556 7.37777777 24 17.68888884h-12.6222222c-1.4222222-4.0888888-4.8888889-7.2888888-11.2-7.2888888-6.8444444.0888888-11.4666666 4-11.7333333 10.2222222-4.4444445-2.6666667-7.0222222-7.4666667-6.8444445-12.62222224 3.8222223-4.97777778 10.4-8 18.4-8z" fill="#fc5c52"/><path d="m13.2444444 8.44444444c0 8.44444446 5.2444445 13.51111116 15.7333334 16.17777776l11.1111111 2.5777778c9.9555555 2.3111111 16 8 16 17.2444444.0888889 4-1.2444445 7.9111112-3.6444445 11.1111112 0-9.2444445-4.8-14.2222223-16.2666666-17.2444445l-10.9333334-2.4888889c-8.8-1.9555555-15.55555551-6.6666666-15.55555551-16.7111111 0-3.8222222 1.24444441-7.6444444 3.55555551-10.66666666" fill="#fa1607"/></g></svg>

<svg xmlns="http://www.w3.org/2000/svg" width="64" height="64" viewBox="0 0 64 64">
  <g fill="none" fill-rule="evenodd">
    <path fill="#FC5C52" fill-rule="nonzero" d="M45.6,42.1333333 C50.3111111,45.1555556 52.4444444,49.4222222 52.4444444,55.5555556 C48.4444444,60.6222222 41.6,63.3777778 33.5111111,63.3777778 C19.9111111,63.3777778 10.2222222,56.6222222 8.17777778,44.9777778 L21.2444444,44.9777778 C22.9333333,50.3111111 27.3777778,52.8 33.4222222,52.8 C40.6222222,52.8888889 45.5111111,48.9777778 45.6,42.1333333 Z M31.6444444,0.355555556 C45.6,0.355555556 53.6,7.73333333 55.6444444,18.0444444 L43.0222222,18.0444444 C41.6,13.9555556 38.1333333,10.7555556 31.8222222,10.7555556 C24.9777778,10.8444444 20.3555556,14.7555556 20.0888889,20.9777778 C15.6444444,18.3111111 13.0666667,13.5111111 13.2444444,8.35555556 C17.0666667,3.37777778 23.6444444,0.355555556 31.6444444,0.355555556 Z"/>
    <path fill="#FA1607" fill-rule="nonzero" d="M13.2444444,8.44444444 C13.2444444,16.8888889 18.4888889,21.9555556 28.9777778,24.6222222 L40.0888889,27.2 C50.0444444,29.5111111 56.0888889,35.2 56.0888889,44.4444444 C56.1777778,48.4444444 54.8444444,52.3555556 52.4444444,55.5555556 C52.4444444,46.3111111 47.6444444,41.3333333 36.1777778,38.3111111 L25.2444444,35.8222222 C16.4444444,33.8666667 9.68888889,29.1555556 9.68888889,19.1111111 C9.68888889,15.2888889 10.9333333,11.4666667 13.2444444,8.44444444"/>
  </g>
</svg>
